X:527
T: DIE GEDANKEN SIND FREI
N: E1803
O: Europa, Mitteleuropa, Deutschland
R: Freiheits - Lied
M: 3/4
L: 1/8
K: C
G,G, | C3DEC | G,4
E,2 | G,2F,2D,2 | F,2E,2
G,2 | C3DEC | G,4
E,2 | G,2F,2D,2 | D,2C,2
C2 | B,2D3B, | C2E2
C2 | B,2D3B, | C2E2
C2 | A,3B,CA, | G,2C2
EG | F2D2B,2 | C4

@@@ Tune index: 5211
